X:133
T:Love One's Fancy
C:R. Klimowicz
M:2/4
K:D
L:1/16
(ea).e.a (ea){e}f2|[1 f6 z2:|[2 f4|:a2aa|f2A2 (ef).g.e|d2A2 .e2.e.e|(gf).e.d (ga).f.g|
e2A2 .a2.a.a|f2A2 (ef).g.e|d2A2 .e2.e.e|(gf).e.d (fe).d.c|d2 D2::.e2.e.e|(fd).d2 .f2.f.f|
(ge).e2 (ab).a.g|(fe).d.c (BA).G.F|(FE).E2 .a2.a.a|f2A2 (ef).g.e|d2A2 .e2.e.e|(gf).e.d (fe).d.c|d2 D2:|
